X: 4579
T: Bottom Of The Punchbowl, The
R: reel
M: 4/4
K: Dmajor
|:FE|D2 D2 d3 e|d2 D2 FGAF|E2 e2 efgf|edcB AGFE|
D2 D2 d3 e|fedc d2 A2|BcdB ABAG|F2 D2 D2:|
|:de|fedB ABde|fedc d2 A2|B2 e2 e2 de|f2 e2 e2 de|
fedB ABde|faef d2 A2|BcdB ABAG|F2 D2 D2:|

